dist/images/Icon/tel.svg

<svg width="20" height="20" viewBox="0 0 20 20" xmlns="http://www.w3.org/2000/svg"><title>Group 16</title><path d="M3.981 1c-.269.005-.989.333-1.773 1.055C1.463 2.741 1.001 3.486 1.001 4c0 6.729 8.264 15 14.986 15 .513 0 1.258-.465 1.944-1.213.723-.788 1.051-1.512 1.056-1.781-.032-.19-.558-.929-1.997-2.037-1.238-.952-2.24-1.463-2.498-1.469-.018.005-.13.048-.357.336-.197.251-.408.594-.613.926-.561.911-1.089 1.772-1.858 1.772a.97.97 0 0 1-.363-.071c-2.625-1.05-5.729-4.154-6.779-6.779-.126-.315-.146-.809.474-1.372.33-.298.786-.578 1.228-.85.332-.204.676-.415.926-.613.288-.227.331-.339.336-.357-.007-.258-.517-1.261-1.469-2.498C4.909 1.555 4.169 1.03 3.98.997L3.981 1zm12.006 19c-1.772 0-3.655-.502-5.6-1.492-1.793-.913-3.564-2.22-5.122-3.779-1.558-1.561-2.863-3.334-3.775-5.128C.502 7.655 0 5.771 0 4c0-1.148 1.07-2.257 1.529-2.68C2.19.711 3.23 0 3.986 0c.376 0 .816.246 1.387.774.424.394.904.928 1.382 1.544.289.372 1.731 2.271 1.731 3.182 0 .747-.845 1.267-1.739 1.816-.346.212-.703.432-.961.639-.276.221-.326.338-.333.364.949 2.366 3.85 5.267 6.215 6.215.021-.007.138-.053.363-.333.207-.258.427-.616.638-.961.551-.894 1.07-1.739 1.817-1.739.911 0 2.809 1.441 3.182 1.73.616.479 1.15.958 1.543 1.383.529.57.775 1.011.775 1.387 0 .756-.711 1.799-1.319 2.463-.424.462-1.533 1.537-2.681 1.537l.001-.001z" fill="#FFF" fill-rule="evenodd"/></svg>

<?xml version="1.0" encoding="UTF-8"?>
<svg width="20px" height="20px" viewBox="0 0 20 20" version="1.1" xmlns="http://www.w3.org/2000/svg" xmlns:xlink="http://www.w3.org/1999/xlink">
    <!-- Generator: Sketch 41 (35326) - http://www.bohemiancoding.com/sketch -->
    <title>Group 16</title>
    <desc>Created with Sketch.</desc>
    <defs></defs>
    <g id="Page-1" stroke="none" stroke-width="1" fill="none" fill-rule="evenodd">
        <g id="Main" transform="translate(-210.000000, -5575.000000)" fill="#FFFFFF">
            <g id="contacts" transform="translate(0.000000, 4717.000000)">
                <g id="Group-16" transform="translate(210.000000, 858.000000)">
                    <path d="M3.981,1 C3.712,1.005 2.992,1.333 2.208,2.055 C1.463,2.741 1.001,3.486 1.001,4 C1.001,10.729 9.265,19 15.987,19 C16.5,19 17.245,18.535 17.931,17.787 C18.654,16.999 18.982,16.275 18.987,16.006 C18.955,15.816 18.429,15.077 16.99,13.969 C15.752,13.017 14.75,12.506 14.492,12.5 C14.474,12.505 14.362,12.548 14.135,12.836 C13.938,13.087 13.727,13.43 13.522,13.762 C12.961,14.673 12.433,15.534 11.664,15.534 C11.54,15.534 11.418,15.51 11.301,15.463 C8.676,14.413 5.572,11.309 4.522,8.684 C4.396,8.369 4.376,7.875 4.996,7.312 C5.326,7.014 5.782,6.734 6.224,6.462 C6.556,6.258 6.9,6.047 7.15,5.849 C7.438,5.622 7.481,5.51 7.486,5.492 C7.479,5.234 6.969,4.231 6.017,2.994 C4.909,1.555 4.169,1.03 3.98,0.997 L3.981,1 Z M15.987,20 C14.215,20 12.332,19.498 10.387,18.508 C8.594,17.595 6.823,16.288 5.265,14.729 C3.707,13.168 2.402,11.395 1.49,9.601 C0.502,7.655 0,5.771 0,4 C0,2.852 1.07,1.743 1.529,1.32 C2.19,0.711 3.23,0 3.986,0 C4.362,0 4.802,0.246 5.373,0.774 C5.797,1.168 6.277,1.702 6.755,2.318 C7.044,2.69 8.486,4.589 8.486,5.5 C8.486,6.247 7.641,6.767 6.747,7.316 C6.401,7.528 6.044,7.748 5.786,7.955 C5.51,8.176 5.46,8.293 5.453,8.319 C6.402,10.685 9.303,13.586 11.668,14.534 C11.689,14.527 11.806,14.481 12.031,14.201 C12.238,13.943 12.458,13.585 12.669,13.24 C13.22,12.346 13.739,11.501 14.486,11.501 C15.397,11.501 17.295,12.942 17.668,13.231 C18.284,13.71 18.818,14.189 19.211,14.614 C19.74,15.184 19.986,15.625 19.986,16.001 C19.986,16.757 19.275,17.8 18.667,18.464 C18.243,18.926 17.134,20.001 15.986,20.001 L15.987,20 Z" id="Fill-1491"></path>
                </g>
            </g>
        </g>
    </g>
</svg>
